assets/icons/utility/survey.svg

<svg data-name="Layer 1" xmlns="http://www.w3.org/2000/svg" width="52" height="52" viewBox="0 0 52 52">
  <path d="M5.23,3H40.77A3.29,3.29,0,0,1,44,6.33V9.67A3.29,3.29,0,0,1,40.77,13H5.23A3.29,3.29,0,0,1,2,9.67V6.33A3.29,3.29,0,0,1,5.23,3ZM5.15,18h19.7A3.26,3.26,0,0,1,28,21.33v3.34A3.26,3.26,0,0,1,24.85,28H5.15A3.26,3.26,0,0,1,2,24.67V21.33A3.26,3.26,0,0,1,5.15,18ZM39,28A11,11,0,1,1,28,39,11,11,0,0,1,39,28Zm7,7.92a.84.84,0,0,0,0-1l-1.12-1a.77.77,0,0,0-1.12,0l-6,6.72-2.72-2.72a.77.77,0,0,0-1.12,0l-1.12,1a.68.68,0,0,0,0,1l3.84,3.76a1.58,1.58,0,0,0,1.12.48,1.45,1.45,0,0,0,1.12-.48ZM5.2,33H23.76a16.14,16.14,0,0,0-1,5,17.11,17.11,0,0,0,.48,5H5.2A3.28,3.28,0,0,1,2,39.67V36.33H2A3.28,3.28,0,0,1,5.2,33Z" fill="#fff" />
</svg>

<?xml version="1.0"?><svg xmlns="http://www.w3.org/2000/svg" width="52" height="52" viewBox="0 0 52 52"><path d="m5.2 3h35.6a3.3 3.3 0 0 1 3.2 3.3v3.4a3.3 3.3 0 0 1-3.2 3.3h-35.6a3.3 3.3 0 0 1-3.2-3.3v-3.4a3.3 3.3 0 0 1 3.2-3.3z m0 15h19.7a3.3 3.3 0 0 1 3.1 3.3v3.4a3.3 3.3 0 0 1-3.1 3.3h-19.7a3.3 3.3 0 0 1-3.2-3.3v-3.4a3.3 3.3 0 0 1 3.2-3.3z m33.8 10a11 11 0 1 1-11 11 11 11 0 0 1 11-11z m7 7.9a0.8 0.8 0 0 0 0-1l-1.1-1a0.8 0.8 0 0 0-1.1 0l-6 6.7-2.8-2.7a0.8 0.8 0 0 0-1.1 0l-1.1 1a0.7 0.7 0 0 0 0 1l3.8 3.8a1.6 1.6 0 0 0 1.2 0.5 1.4 1.4 0 0 0 1.1-0.5z m-40.8-2.9h18.6a16.1 16.1 0 0 0-1 5 17.1 17.1 0 0 0 0.4 5h-18a3.3 3.3 0 0 1-3.2-3.3v-3.4a3.3 3.3 0 0 1 3.2-3.3z" fill="#fff"></path></svg>
